assets/src/images/icons/ic_peoples.svg

<svg width="50" height="37" viewBox="0 0 50 37" fill="none" xmlns="http://www.w3.org/2000/svg">
<path fill-rule="evenodd" clip-rule="evenodd" d="M47.7648 26.9507L44.7399 26.0864C44.6094 26.0491 44.5182 25.9282 44.5182 25.7924V24.7827C44.7643 24.6122 44.999 24.4214 45.2185 24.2084C46.2819 23.1764 46.8676 21.7921 46.8676 20.3104V18.9172L47.1601 18.3323C47.4811 17.6902 47.6507 16.9714 47.6507 16.2536V12.4792C47.6507 12.0747 47.3228 11.7468 46.9183 11.7468H39.8701C37.3072 11.7468 35.2221 13.8319 35.2221 16.3948V16.4385C35.2221 17.0354 35.3632 17.6331 35.6301 18.1669L36.0052 18.9171V20.1134C36.0052 22.0093 36.9395 23.7104 38.3546 24.734L38.3548 25.7922C38.3548 25.9554 38.3548 26.0229 37.75 26.1958L36.274 26.6175L32.0044 25.0649C32.0197 24.8635 31.9518 24.6586 31.8048 24.5042L30.4404 23.0708V20.6645C30.5847 20.5457 30.7269 20.4236 30.8646 20.2945C32.5858 18.6812 33.5729 16.4035 33.5729 14.0454V12.1237C34.0927 10.9928 34.3561 9.796 34.3561 8.56348V0.732422C34.3561 0.32793 34.0281 0 33.6236 0H22.6599C18.8015 0 15.6625 3.13906 15.6625 6.99736V8.56367C15.6625 9.79619 15.9259 10.993 16.4456 12.1239V13.7773C16.4456 16.5152 17.663 18.9818 19.5781 20.608V23.0709L18.2138 24.5043C18.0668 24.6587 17.9988 24.8636 18.0142 25.065L13.5078 26.7036C13.1813 26.8224 12.8778 26.9832 12.6023 27.178L11.8947 26.8242C14.0012 25.9073 14.6685 24.6178 14.7005 24.5537C14.8036 24.3476 14.8036 24.1048 14.7005 23.8986C14.1725 22.8426 14.1085 20.9069 14.0571 19.3517C14.04 18.8339 14.0238 18.3447 13.9929 17.9092C13.7432 14.3961 11.0725 11.7468 7.78047 11.7468C4.48848 11.7468 1.81768 14.396 1.56807 17.9092C1.53711 18.3448 1.5209 18.834 1.50381 19.3519C1.45244 20.907 1.38838 22.8425 0.860449 23.8985C0.757324 24.1047 0.757324 24.3475 0.860449 24.5536C0.89248 24.6177 1.5584 25.9046 3.66904 26.8226L1.70352 27.8053C0.652734 28.3311 0 29.3872 0 30.5619V35.9729C0 36.3774 0.32793 36.7054 0.732422 36.7054C1.13691 36.7054 1.46484 36.3774 1.46484 35.9729V30.5619C1.46484 29.9455 1.80732 29.3913 2.35859 29.1156L4.80615 27.8919L5.65752 28.701C6.25283 29.2667 7.0165 29.5494 7.78047 29.5494C8.54424 29.5494 9.3083 29.2665 9.90342 28.701L10.7547 27.892L11.5527 28.291C11.177 28.8923 10.9637 29.5974 10.9637 30.3359V35.9731C10.9637 36.3776 11.2916 36.7056 11.6961 36.7056C12.1006 36.7056 12.4285 36.3776 12.4285 35.9731V30.3359C12.4285 29.3305 13.0634 28.424 14.0084 28.0804L18.7596 26.3527L20.7374 29.3196C20.9902 29.6989 21.3954 29.9422 21.849 29.9871C21.8996 29.9921 21.9499 29.9945 22.0001 29.9945C22.4003 29.9945 22.7836 29.837 23.0701 29.5506L24.2768 28.3439V35.9732C24.2768 36.3777 24.6047 36.7057 25.0092 36.7057C25.4137 36.7057 25.7416 36.3777 25.7416 35.9732V28.3439L26.9482 29.5506C27.2347 29.8371 27.618 29.9946 28.0183 29.9946C28.0684 29.9946 28.1187 29.9922 28.1692 29.9872C28.6229 29.9423 29.0281 29.699 29.281 29.3197L31.2589 26.3529L36.01 28.0806C36.9549 28.4242 37.5898 29.3307 37.5898 30.3361V35.9733C37.5898 36.3778 37.9178 36.7058 38.3223 36.7058C38.7268 36.7058 39.0547 36.3778 39.0547 35.9733V30.3361C39.0547 29.3178 38.6501 28.3627 37.9714 27.6563L38.1523 27.6047C38.3349 27.5525 38.5839 27.4811 38.8339 27.3586L40.7039 29.2286V35.9733C40.7039 36.3778 41.0318 36.7058 41.4363 36.7058C41.8408 36.7058 42.1688 36.3778 42.1688 35.9733V29.2286L44.0258 27.3716C44.1245 27.4218 44.2282 27.4642 44.3374 27.4953L47.3624 28.3596C48.0528 28.5568 48.5352 29.1962 48.5352 29.9144V35.9733C48.5352 36.3778 48.8631 36.7058 49.2676 36.7058C49.6721 36.7058 50 36.3778 50 35.9733V29.9144C50 28.5454 49.0809 27.3268 47.7648 26.9507ZM4.69873 25.657C3.32871 25.1641 2.6415 24.5068 2.34814 24.1479C2.54814 23.6251 2.67783 23.0263 2.76562 22.3941C3.16953 23.3626 3.846 24.1894 4.69873 24.7792V25.657ZM8.89453 27.6393C8.26982 28.2328 7.29121 28.2327 6.6667 27.6392L5.98555 26.9919C6.10049 26.7766 6.16367 26.5324 6.16367 26.2767V25.496C6.67461 25.6557 7.21777 25.7418 7.78066 25.7418C8.34287 25.7418 8.88574 25.6553 9.39756 25.4965L9.39746 26.2766C9.39746 26.5324 9.46055 26.7767 9.57559 26.9921L8.89453 27.6393ZM7.78086 24.277C5.59375 24.277 3.81455 22.4977 3.81455 20.3106C3.81455 19.9062 3.48662 19.5782 3.08213 19.5782C3.04111 19.5782 3.00107 19.5824 2.96191 19.589L2.96826 19.4005C2.98457 18.8969 3.00029 18.4212 3.0293 18.0132C3.12285 16.6972 3.64873 15.4845 4.51006 14.5983C5.3791 13.7042 6.54063 13.2118 7.78066 13.2118C9.0207 13.2118 10.1821 13.7042 11.0513 14.5983C11.9126 15.4845 12.4385 16.6972 12.532 18.0132C12.5609 18.4211 12.5768 18.8967 12.5934 19.4002L12.5978 19.5309C11.8009 18.3031 10.5702 17.3983 8.98008 16.8874C7.51104 16.4154 6.24756 16.4446 6.19424 16.446C6.00244 16.4514 5.82041 16.5316 5.6873 16.6697L4.36582 18.0402C4.08506 18.3314 4.09346 18.7951 4.38467 19.0759C4.67588 19.3566 5.13955 19.3481 5.42031 19.057L6.51992 17.9167C7.46689 17.963 10.5135 18.3173 11.6983 20.9264C11.4002 22.849 9.74766 24.277 7.78086 24.277ZM10.8622 25.6595L10.8623 24.7859C11.7144 24.1993 12.3918 23.3741 12.796 22.3983C12.8838 23.029 13.0134 23.6265 13.213 24.1481C12.9213 24.5036 12.2309 25.1667 10.8622 25.6595ZM17.9104 13.7772V11.9601C17.9104 11.8498 17.8855 11.7409 17.8376 11.6416C17.3663 10.6656 17.1273 9.63008 17.1273 8.56367V6.99746C17.1273 3.94678 19.6093 1.46494 22.6599 1.46494H32.8912V8.56377C32.8912 9.63018 32.6522 10.6657 32.181 11.6417C32.133 11.741 32.1081 11.8499 32.1081 11.9602V14.0456C32.1081 16.0291 31.3107 17.8688 29.8629 19.226C29.6821 19.3953 29.4945 19.5541 29.3006 19.702L29.2927 19.7077L29.288 19.7112C27.9316 20.741 26.2703 21.2415 24.5354 21.1291C20.8204 20.8886 17.9104 17.6593 17.9104 13.7772ZM22.0344 28.5146L22.0343 28.5148C22.0291 28.5199 22.0173 28.5317 21.9936 28.5292C21.9697 28.5269 21.9604 28.5129 21.9563 28.5068L19.6785 25.09L20.4115 24.3198L23.8671 26.6818L22.0344 28.5146ZM25.0093 25.6882L21.043 22.9771V21.6099C22.0692 22.1646 23.2184 22.5116 24.4405 22.5907C24.6336 22.6032 24.8255 22.6094 25.0168 22.6094C26.4173 22.6094 27.7651 22.2746 28.9756 21.6392V22.9771L25.0093 25.6882ZM28.0622 28.507C28.0582 28.5131 28.0488 28.5271 28.025 28.5294C28.0021 28.5323 27.9904 28.5209 27.9849 28.5155L27.9842 28.5148L26.1515 26.6821L29.607 24.32L30.3401 25.0902L28.0622 28.507ZM41.4363 27.8891L39.7742 26.2271C39.8032 26.0953 39.8196 25.9511 39.8195 25.792L39.8194 25.4829C40.2807 25.6343 40.7668 25.7241 41.2698 25.7392C41.3263 25.7409 41.3822 25.7417 41.4385 25.7417C41.9943 25.7417 42.5369 25.6577 43.0533 25.4975V25.7924C43.0533 25.9385 43.0717 26.0816 43.1063 26.2192L41.4363 27.8891ZM44.1983 23.1572C43.4221 23.9105 42.3966 24.3084 41.3139 24.275C39.1943 24.2114 37.47 22.3445 37.47 20.1136V18.7443C37.47 18.6306 37.4436 18.5185 37.3927 18.4168L36.9402 17.5119C36.7745 17.1804 36.6869 16.8093 36.6869 16.4386V16.3949C36.6869 14.6396 38.1149 13.2117 39.8701 13.2117H46.1858V16.2537C46.1858 16.7453 46.0696 17.2376 45.8498 17.6773L45.4801 18.4168C45.4292 18.5186 45.4027 18.6306 45.4027 18.7443V20.3105C45.4027 21.3926 44.975 22.4035 44.1983 23.1572ZM44.1133 16.5229C42.4119 15.6723 39.222 15.6624 39.087 15.6624C38.6825 15.6624 38.3546 15.9903 38.3546 16.3948C38.3546 16.7993 38.6825 17.1272 39.087 17.1272C39.9102 17.1273 42.3001 17.2541 43.4582 17.8331C43.5634 17.8857 43.6751 17.9105 43.7852 17.9105C44.0538 17.9105 44.3125 17.7621 44.4408 17.5056C44.6218 17.1437 44.4751 16.7038 44.1133 16.5229ZM45.4026 31.2742C45.4026 30.8697 45.7306 30.5418 46.1351 30.5418C46.5396 30.5418 46.8675 30.8698 46.8675 31.2742V35.9729C46.8675 36.3774 46.5396 36.7054 46.1351 36.7054C45.7306 36.7054 45.4026 36.3774 45.4026 35.9729V31.2742ZM3.86493 31.51C3.46044 31.51 3.13251 31.8379 3.13251 32.2424V35.973C3.13251 36.3774 3.46044 36.7054 3.86493 36.7054C4.26942 36.7054 4.59735 36.3774 4.59735 35.973V32.2424C4.59735 31.838 4.26942 31.51 3.86493 31.51ZM20.0796 6.94473C22.4431 6.58848 28.2389 6.05889 31.009 8.82901C31.295 9.11494 31.295 9.57871 31.009 9.86475C30.723 10.1508 30.2593 10.1508 29.9732 9.86475C28.9946 8.88604 27.3403 8.3127 25.0563 8.16065C23.1154 8.03125 21.2421 8.25078 20.298 8.39307C20.2762 8.39639 20.2598 8.41768 20.2598 8.44258V10.13C20.2598 10.5345 19.9318 10.8624 19.5273 10.8624C19.1228 10.8624 18.7949 10.5345 18.7949 10.13V8.44268C18.7949 7.68691 19.3352 7.05693 20.0796 6.94473ZM16.3949 32.1081C15.9904 32.1081 15.6625 32.436 15.6625 32.8405V35.973C15.6625 36.3775 15.9904 36.7055 16.3949 36.7055C16.7994 36.7055 17.1273 36.3775 17.1273 35.973V32.8405C17.1273 32.4361 16.7994 32.1081 16.3949 32.1081ZM32.8912 32.8405C32.8912 32.436 33.2191 32.1081 33.6236 32.1081C34.0281 32.1081 34.356 32.4361 34.356 32.8405V35.973C34.356 36.3775 34.0281 36.7055 33.6236 36.7055C33.2191 36.7055 32.8912 36.3775 32.8912 35.973V32.8405Z" fill="#0090A1"/>
</svg>

<svg width="50" height="37" viewBox="0 0 50 37" fill="none" xmlns="http://www.w3.org/2000/svg"><path fill-rule="evenodd" clip-rule="evenodd" d="M47.765 26.95l-3.025-.864a.307.307 0 01-.222-.294v-1.01c.246-.17.481-.36.7-.574a5.388 5.388 0 001.65-3.898v-1.393l.292-.585c.321-.642.49-1.36.49-2.078v-3.775a.732.732 0 00-.732-.732H39.87a4.653 4.653 0 00-4.648 4.648v.044c0 .596.141 1.194.408 1.728l.375.75v1.196c0 1.896.934 3.597 2.35 4.621v1.058c0 .163 0 .23-.605.404l-1.476.421-4.27-1.552a.732.732 0 00-.2-.56L30.44 23.07v-2.407a8.73 8.73 0 00.425-.37 8.596 8.596 0 002.708-6.249v-1.921a8.463 8.463 0 00.783-3.56V.731A.733.733 0 0033.624 0H22.66a7.005 7.005 0 00-6.998 6.997v1.567c0 1.232.264 2.429.784 3.56v1.653a8.95 8.95 0 003.132 6.831v2.463l-1.364 1.433a.731.731 0 00-.2.561l-4.506 1.639c-.327.118-.63.28-.906.474l-.707-.354c2.106-.917 2.774-2.206 2.806-2.27a.732.732 0 000-.655c-.529-1.056-.593-2.992-.644-4.547a39.769 39.769 0 00-.064-1.443c-.25-3.513-2.92-6.162-6.213-6.162-3.292 0-5.962 2.649-6.212 6.162-.03.436-.047.925-.064 1.443-.052 1.555-.116 3.49-.644 4.546a.732.732 0 000 .656c.032.064.698 1.35 2.809 2.269l-1.965.982A3.066 3.066 0 000 30.562v5.41a.733.733 0 001.465 0v-5.41c0-.617.342-1.17.894-1.446l2.447-1.224.852.809a3.073 3.073 0 002.122.848 3.07 3.07 0 002.123-.848l.852-.809.798.399a3.858 3.858 0 00-.59 2.045v5.637a.732.732 0 101.466 0v-5.637c0-1.005.634-1.912 1.58-2.256l4.75-1.727 1.978 2.967a1.51 1.51 0 001.263.674c.4 0 .784-.157 1.07-.443l1.207-1.207v7.63a.732.732 0 101.465 0v-7.63l1.206 1.207a1.51 1.51 0 001.221.436 1.51 1.51 0 001.112-.667l1.978-2.967 4.751 1.728a2.407 2.407 0 011.58 2.255v5.637a.733.733 0 001.465 0v-5.637a3.872 3.872 0 00-1.084-2.68l.181-.051c.183-.053.432-.124.682-.246l1.87 1.87v6.744a.732.732 0 101.465 0V29.23l1.857-1.857c.098.05.202.092.311.123l3.025.865c.69.197 1.173.836 1.173 1.554v6.06a.732.732 0 101.465 0v-6.06c0-1.369-.92-2.587-2.235-2.963zM4.699 25.658c-1.37-.493-2.057-1.15-2.35-1.51.2-.522.329-1.12.417-1.753a5.461 5.461 0 001.933 2.385v.878zm4.196 1.982a1.616 1.616 0 01-2.228 0l-.681-.647c.114-.215.178-.46.178-.715v-.781a5.448 5.448 0 003.234 0v.78c0 .256.063.5.178.716l-.681.647zM7.78 24.277a3.97 3.97 0 01-3.966-3.966.732.732 0 00-.853-.722l.006-.188c.017-.504.032-.98.061-1.388.094-1.316.62-2.529 1.481-3.415a4.527 4.527 0 013.27-1.386c1.24 0 2.402.492 3.271 1.386.862.886 1.387 2.1 1.481 3.415.029.408.045.884.061 1.387l.005.13c-.797-1.227-2.028-2.132-3.618-2.643a9.19 9.19 0 00-2.786-.441.733.733 0 00-.507.224l-1.321 1.37a.733.733 0 001.054 1.017l1.1-1.14c.947.046 3.994.4 5.178 3.01a3.957 3.957 0 01-3.917 3.35zm3.081 1.383v-.874a5.417 5.417 0 001.934-2.388c.088.631.217 1.229.417 1.75-.292.356-.982 1.019-2.35 1.512zm7.048-11.883V11.96c0-.11-.024-.22-.072-.318a7.025 7.025 0 01-.71-3.078V6.997a5.539 5.539 0 015.532-5.532H32.89v7.099a7.027 7.027 0 01-.71 3.078.732.732 0 00-.073.318v2.086a7.032 7.032 0 01-2.245 5.18 7.3 7.3 0 01-.562.476l-.008.006-.005.003a7.042 7.042 0 01-4.753 1.418c-3.715-.24-6.625-3.47-6.625-7.352zm4.124 14.738c-.005.005-.017.017-.04.014a.047.047 0 01-.038-.022L19.68 25.09l.733-.77 3.455 2.362-1.833 1.833zm2.975-2.827l-3.966-2.71V21.61a8.248 8.248 0 003.974 1c1.4 0 2.748-.335 3.959-.97v1.337l-3.967 2.711zm3.053 2.819a.046.046 0 01-.037.022.045.045 0 01-.04-.014l-1.834-1.833 3.456-2.362.733.77-2.278 3.417zm13.374-.618l-1.662-1.662a2.01 2.01 0 00.045-.435v-.31a5.137 5.137 0 001.62.26c.555 0 1.098-.084 1.614-.245v.295c0 .146.019.29.053.427l-1.67 1.67zm2.762-4.732a3.936 3.936 0 01-2.884 1.118c-2.12-.064-3.844-1.93-3.844-4.161v-1.37a.732.732 0 00-.077-.327l-.453-.905a2.413 2.413 0 01-.253-1.073v-.044a3.187 3.187 0 013.183-3.183h6.316v3.042a3.2 3.2 0 01-.336 1.423l-.37.74a.732.732 0 00-.077.327v1.567a3.935 3.935 0 01-1.205 2.846zm-.085-6.634c-1.701-.85-4.891-.86-5.026-.86a.732.732 0 100 1.464c.823 0 3.213.127 4.371.706a.73.73 0 00.983-.327.732.732 0 00-.328-.983zm1.29 14.751a.732.732 0 011.465 0v4.699a.732.732 0 11-1.465 0v-4.699zm-41.538.236a.732.732 0 00-.732.732v3.731a.732.732 0 001.464 0v-3.73a.732.732 0 00-.732-.733zM20.08 6.945c2.363-.357 8.159-.886 10.929 1.884a.732.732 0 11-1.036 1.036c-.978-.979-2.633-1.552-4.917-1.704-1.94-.13-3.814.09-4.758.232-.022.003-.038.025-.038.05v1.687a.732.732 0 01-1.465 0V8.443c0-.756.54-1.386 1.285-1.498zm-3.685 25.163a.732.732 0 00-.732.733v3.132a.732.732 0 101.464 0V32.84a.732.732 0 00-.732-.732zm16.496.733a.732.732 0 111.465 0v3.132a.732.732 0 11-1.465 0V32.84z" fill="#0090A1"/></svg>
